X: 1
T: The Wizard's Hop
M: 3/2
L: 1/8
R: three-two
K: Emin
e2 dc dcBA BAGF | G2 A2 F2 G2 E2 B2 | e3 f gfaf gfef | g2 a2 f2 g2 e4 | a2 gf edcB cBAB | c2 d2 B2 c2 A2 E2 | A3 B cBdB cBAB | c2 d2 B2 c2 A4 | BBfB BfBB fBBf | gccg ccgc acgc | BBfB BfBB fBBf | gccg ccgc acgc | f2 BB B2 f2 g2 e2 | f2 BB B2 f2 g2 e2 | [fB]B^cc ^ddee ffgg | aaff ggaa b4 ||: eg b2 bgeg b2 ge | ^df b2 bfdf b2 f2 | df a2 afdf a2 fd | ^ce a2 aece aecA | ce g2 geaf gece | Be g2 geaf geBe | _Be g2 geaf geBe | B2 e2 g2 e2 fe ^d2 :||



